X: 1218
T: The Star of Munster
M:C|
L:1/8
R:Reel
B:O'Neill's 1218
N:Collected by F. O'Neill
Z:Transcribed by Trish O'Neil
K:C
ed|c2(Ac)B2(GB)|AGE^F GED=F|EAAB cBcd|eaa^f g=fed|
~c2(Ac)~B2(GB)|AGE^F GED=F|EAAB cded|cAB^GA2z2||
(ea)ab ageg|agbg age^f|{a}g^fga gfef|gea^f g=fed|
(ea)ab ageg|agbg age^f|~g2ge~a2ag|b2ba gfed||


